icons/Youtubeicons.svg

<svg width="16" height="16" viewBox="0 0 16 16" fill="none" xmlns="http://www.w3.org/2000/svg">
<g clip-path="url(#clip0_4_1601)">
<path d="M6.45974 10.4541C6.50204 10.454 6.54353 10.4424 6.57982 10.4205L10.6034 8.00915C10.6391 7.98802 10.6686 7.95773 10.6889 7.92136C10.7093 7.88499 10.7197 7.84384 10.7192 7.80208C10.7187 7.76032 10.7073 7.71944 10.686 7.68359C10.6648 7.64774 10.6346 7.61819 10.5984 7.59795L6.57542 5.31353C6.53956 5.29301 6.499 5.28233 6.45778 5.28257C6.41656 5.2828 6.37612 5.29394 6.3405 5.31487C6.30488 5.3358 6.27531 5.3658 6.25476 5.40186C6.2342 5.43792 6.22338 5.4788 6.22335 5.5204V10.2162C6.22352 10.2793 6.2485 10.3398 6.29281 10.3845C6.33712 10.4291 6.39715 10.4541 6.45974 10.4541V10.4541ZM6.6955 5.92715L10.0124 7.81053L6.6955 9.79798V5.92715Z" fill="#3D3D3D"/>
<path d="M13.1866 2.3H2.81336C2.06747 2.30084 1.35236 2.60029 0.824933 3.13264C0.297506 3.665 0.000832007 4.38679 0 5.13966V10.6603C0.000832007 11.4132 0.297506 12.135 0.824933 12.6674C1.35236 13.1997 2.06747 13.4992 2.81336 13.5C2.87589 13.5 2.93585 13.4749 2.98006 13.4303C3.02428 13.3857 3.04912 13.3251 3.04912 13.262C3.04912 13.1989 3.02428 13.1384 2.98006 13.0938C2.93585 13.0491 2.87589 13.0241 2.81336 13.0241C2.19247 13.0234 1.5972 12.7742 1.15816 12.331C0.719122 11.8879 0.472178 11.287 0.471513 10.6603V5.13966C0.472344 4.51301 0.719341 3.91228 1.15834 3.46917C1.59734 3.02607 2.19252 2.77676 2.81336 2.77592H13.1866C13.8075 2.77676 14.4027 3.02607 14.8417 3.46917C15.2807 3.91228 15.5277 4.51301 15.5285 5.13966V10.6603C15.5277 11.287 15.2807 11.8877 14.8417 12.3308C14.4027 12.7739 13.8075 13.0232 13.1866 13.0241H4.88802C4.82549 13.0241 4.76552 13.0491 4.72131 13.0938C4.6771 13.1384 4.65226 13.1989 4.65226 13.262C4.65226 13.3251 4.6771 13.3857 4.72131 13.4303C4.76552 13.4749 4.82549 13.5 4.88802 13.5H13.1866C13.9325 13.4992 14.6476 13.1997 15.1751 12.6674C15.7025 12.135 15.9992 11.4132 16 10.6603V5.13966C15.9992 4.38679 15.7025 3.665 15.1751 3.13264C14.6476 2.60029 13.9325 2.30084 13.1866 2.3V2.3Z" fill="#3D3D3D"/>
</g>
<defs>
<clipPath id="clip0_4_1601">
<rect width="16" height="16" fill="white"/>
</clipPath>
</defs>
</svg>

<svg xmlns="http://www.w3.org/2000/svg" width="16" height="16" fill="currentColor" class="si si-Youtubeicons" viewBox="0 0 16 16">
  <g clip-path="url(#a)">
    <path d="M6.46 10.454a.23.23 0 0 0 .12-.034l4.023-2.41a.24.24 0 0 0 .116-.208.24.24 0 0 0-.12-.204L6.574 5.314a.234.234 0 0 0-.32.088.24.24 0 0 0-.032.118v4.696a.24.24 0 0 0 .07.168c.044.045.104.07.167.07m.236-4.527 3.316 1.884-3.317 1.987z"/>
    <path d="M13.187 2.3H2.813c-.746 0-1.46.3-1.988.833A2.86 2.86 0 0 0 0 5.14v5.52c0 .753.298 1.475.825 2.007a2.8 2.8 0 0 0 1.988.833.24.24 0 0 0 .167-.07.24.24 0 0 0-.167-.406c-.62 0-1.216-.25-1.655-.693a2.38 2.38 0 0 1-.686-1.67V5.14c0-.627.247-1.228.686-1.67a2.33 2.33 0 0 1 1.655-.694h10.374c.62 0 1.216.25 1.655.693s.686 1.044.686 1.67v5.521a2.37 2.37 0 0 1-.686 1.67 2.33 2.33 0 0 1-1.655.694H4.888a.23.23 0 0 0-.167.07.239.239 0 0 0 .167.406h8.299a2.8 2.8 0 0 0 1.988-.833A2.86 2.86 0 0 0 16 10.66V5.14a2.85 2.85 0 0 0-.825-2.007 2.8 2.8 0 0 0-1.988-.833"/>
  </g>
  <defs>
    <clipPath id="a">
      <path d="M0 0h16v16H0z"/>
    </clipPath>
  </defs>
</svg>
